storage/app/icons/phosphoricons/light/house-line-light.svg

<svg xmlns="http://www.w3.org/2000/svg" fill="currentColor" viewBox="0 0 256 256"><path d="M240 210h-18v-78.83l5.76 5.76a6 6 0 0 0 8.48-8.49L137.9 30.09a14 14 0 0 0-19.8 0l-98.34 98.35a6 6 0 0 0 8.48 8.49l5.76-5.76V210H16a6 6 0 0 0 0 12h224a6 6 0 0 0 0-12M46 119.17l80.58-80.59a2 2 0 0 1 2.84 0L210 119.17V210h-52v-58a6 6 0 0 0-6-6h-48a6 6 0 0 0-6 6v58H46ZM146 210h-36v-52h36Z"/></svg>

<svg xmlns="http://www.w3.org/2000/svg" viewBox="0 0 256 256" fill="currentColor"><path d="M240,210H222V131.17l5.76,5.76a6,6,0,0,0,8.48-8.49L137.9,30.09a14,14,0,0,0-19.8,0L19.76,128.44a6,6,0,0,0,8.48,8.49L34,131.17V210H16a6,6,0,0,0,0,12H240a6,6,0,0,0,0-12ZM46,119.17l80.58-80.59a2,2,0,0,1,2.84,0L210,119.17V210H158V152a6,6,0,0,0-6-6H104a6,6,0,0,0-6,6v58H46ZM146,210H110V158h36Z"/></svg>
